X: 410
T:Mrs. O'Sullivan's Jig
R:jig
M:6/8
Z:Henrik Norbeck
K:Bm
B,DD DB,A,|B,DD G2F|EGE EDE|GAB B2A|
GAB d2e|dBA G2A|Bee BcA|1 GEE E2D:|2 GEE E2A||
|:Bdd dBA|Bdd d2A|Bee ede|fed e2F|
GAB d2e|dBA G2A|Bee BcA|1 GEE E2A:|2 GEE E2D||
<end>
<start>
